!!!COM: Anon.
!!!OCL: Francis James Child
!!!OPR: The English and Scottish Popular Ballads
!!!OVM: Vol. 1
!!!ONB: Ballad No. 14, Tune No. 1
!!!ONM: No. 14
!!!PDT: 1882
!!!YEM: Public domain.
**kern
*M3/4
{4g
=1
16d
8.g
[4g
8.g]
16a
=2
8.f
16g
4.a}
!! Second phrase:
{8cc
=3
8.aT
16g
4g
8g
8a
=4
8.cc
16dd
4.ff}
!! Third phrase:
{8cc
=5
16dd
8.gg
[4dd
8.dd]
16cc
=6
8.aT
16g
4.f}
!! Fourth phrase:
{8cc
=7
8.ff
16ee
[4dd
8.dd]
16cc
=8
8.aT
16g
4g}
====
*-
!!!OCY: Britain; England
!!!PPP: Boston
!!!ODT: <1882
!!!AFR: folk song
!!!AST: monophony
!!!AMT: simple triple
!!!SCA: Child Collection
!!!AIN: vox
!!!EEV: 1.0
!!!RDT: 1987 June
!!!YER: 1994 August 10
!!!VTS: 652652838
